X:1052
T:Wild Irish Rose
C:Joe Buchanan's Scottish Tome - Page 635.2
I:635 2
Z:Carl Allison
R:Waltz
L:1/4
M:3/4
K:C
V:2 treble
G | "C"e3 | e2 d | "C7"c3- | c2 G | "D7"c2 c | "G7"B2 A | "C"G3- | G z E |
"F"F G A | "C"G2 E | "F"F G A | "C"G2 c/B/ | "Am"A3 | "D7"d2 e | "G7"d3- | "G"d2 G |
"C"e3 | e2 d | "C7"c3- | c2 G | "D7"c2 c | "G7"B2 A | "C"G3- | G z E |
"F"F G A | "C"G2 E | "F"F G A | "C"G2 c/B/ | "Am"A B c | "D7"d c "G7"B | "C"c3- | c2 |]

